HTML/assets/group-9.svg

<?xml version="1.0" encoding="UTF-8"?>
<svg width="55px" height="70px" viewBox="0 0 55 70" version="1.1" xmlns="http://www.w3.org/2000/svg" xmlns:xlink="http://www.w3.org/1999/xlink">
    <!-- Generator: sketchtool 49 (51002) - http://www.bohemiancoding.com/sketch -->
    <title>7A7F5E48-047F-4603-8AC2-068C58DDB5E5</title>
    <desc>Created with sketchtool.</desc>
    <defs></defs>
    <g id="💻-Desktop-Web" stroke="none" stroke-width="1" fill="none" fill-rule="evenodd">
        <g id="1.1.Home-Page" transform="translate(-1095.000000, -1679.000000)" fill="#999999">
            <g id="Group-9" transform="translate(1095.000000, 1679.000000)">
                <path d="M46.3702658,13.4685385 C50.0798871,13.4685385 53.0941355,10.4676923 53.0941355,6.77761538 C53.0941355,3.087 50.0798871,0.0861538462 46.3702658,0.0861538462 C42.6606446,0.0861538462 39.6463961,3.10171795 39.6463961,6.77761538 C39.6463961,10.4536923 42.6606446,13.4685385 46.3702658,13.4685385 Z M46.3702658,3.54684615 C48.1526229,3.54684615 49.6165467,4.99674359 49.6165467,6.79161538 C49.6165467,8.58648718 48.1674759,10.0371026 46.3702658,10.0371026 C44.5730558,10.0371026 43.1239849,8.57248718 43.1239849,6.77761538 C43.1239849,4.98274359 44.5730558,3.54684615 46.3702658,3.54684615 Z" id="Fill-1"></path>
                <path d="M6.72386968,56.6176154 C3.01424841,56.6176154 0,59.6184615 0,63.308359 C0,66.9991538 3.01424841,70 6.72386968,70 C10.4336721,70 13.4470148,66.9991538 13.4470148,63.308359 C13.4470148,59.6184615 10.4188191,56.6176154 6.72386968,56.6176154 Z M6.72386968,66.5538462 C4.94151259,66.5538462 3.4775888,65.1032308 3.4775888,63.308359 C3.4775888,61.5282051 4.92665961,60.0635897 6.72386968,60.0635897 C8.52035521,60.0635897 9.96942602,61.5134872 9.96942602,63.308359 C9.95529758,65.0892308 8.50622677,66.5538462 6.72386968,66.5538462 Z" id="Fill-3"></path>
                <path d="M23.3443496,29.7372564 C23.6776359,30.0675128 24.1268478,30.24 24.5762409,30.24 C25.0254528,30.24 25.4599929,30.0675128 25.8079511,29.7372564 C26.4886521,29.0627436 26.4886521,27.9711026 25.8079511,27.2967692 L22.1852741,23.7070256 L25.8079511,20.1172821 C26.4886521,19.4420513 26.4886521,18.3511282 25.8079511,17.6758974 C25.1267067,17.0006667 24.0257751,17.0006667 23.3443496,17.6758974 L19.7216725,21.265641 L16.0989955,17.6758974 C15.4182945,17.0006667 14.3166384,17.0006667 13.6359374,17.6758974 C12.954693,18.3511282 12.954693,19.4420513 13.6359374,20.1172821 L17.2586144,23.7070256 L13.6359374,27.2967692 C12.954693,27.9711026 12.954693,29.0627436 13.6359374,29.7372564 C13.9692237,30.0675128 14.4186168,30.24 14.8671042,30.24 C15.3164973,30.24 15.7515808,30.0675128 16.0989955,29.7372564 L19.7216725,26.1475128 L23.3443496,29.7372564 Z" id="Fill-5"></path>
                <path d="M52.4567255,45.3169231 C51.7752999,44.6416923 50.6743684,44.6416923 49.9929428,45.3169231 L46.3702658,48.9066667 L42.7475888,45.3169231 C42.0661633,44.6416923 40.9652317,44.6416923 40.2838062,45.3169231 C39.6032863,45.9921538 39.6032863,47.0830769 40.2838062,47.7583077 L43.9064832,51.3480513 L40.2838062,54.9377949 C39.6032863,55.6121282 39.6032863,56.7037692 40.2838062,57.3782821 C40.6170924,57.7085385 41.0664855,57.8810256 41.5156975,57.8810256 C41.9650906,57.8810256 42.3994495,57.7085385 42.7475888,57.3782821 L46.3702658,53.7885385 L49.9929428,57.3782821 C50.3262291,57.7085385 50.7754411,57.8810256 51.2248342,57.8810256 C51.6740461,57.8810256 52.1085862,57.7085385 52.4567255,57.3782821 C53.1372454,56.7037692 53.1372454,55.6121282 52.4567255,54.9377949 L48.8340485,51.3480513 L52.4567255,47.7583077 C53.1372454,47.0690769 53.1372454,45.9921538 52.4567255,45.3169231 Z" id="Fill-6"></path>
                <path d="M31.8505763,54.2051282 C31.1691508,53.5306154 30.0682192,53.5306154 29.3867937,54.2051282 L25.7641167,57.7948718 L22.1414397,54.2051282 C21.4607386,53.5306154 20.3590826,53.5306154 19.6785627,54.2051282 C18.9971371,54.8801795 18.9971371,55.9711026 19.6785627,56.6463333 L23.3012397,60.2360769 L19.6785627,63.8258205 C18.9971371,64.5003333 18.9971371,65.5919744 19.6785627,66.2664872 C20.0116678,66.5967436 20.4610609,66.7692308 20.9102729,66.7692308 C21.359666,66.7692308 21.7940249,66.5967436 22.1414397,66.2664872 L25.7641167,62.6767436 L29.3867937,66.2664872 C29.72008,66.5967436 30.1694731,66.7692308 30.618685,66.7692308 C31.0680781,66.7692308 31.5031616,66.5967436 31.8505763,66.2664872 C32.5320019,65.5919744 32.5320019,64.5003333 31.8505763,63.8258205 L28.2278993,60.2360769 L31.8505763,56.6463333 C32.5171489,55.9711026 32.5171489,54.8801795 31.8505763,54.2051282 Z" id="Fill-7"></path>
                <path d="M20.5912962,41.2531538 C21.547864,41.2531538 22.3303623,40.4777692 22.3303623,39.5306154 C22.3303623,38.5825641 21.547864,37.8071795 20.5912962,37.8071795 C19.6345472,37.8071795 18.8520489,38.5825641 18.8520489,39.5306154 C18.8520489,40.4777692 19.6204187,41.2531538 20.5912962,41.2531538 Z" id="Fill-8"></path>
                <path d="M7.70887556,46.3364103 C7.99887085,46.5228974 8.33215714,46.6237692 8.66544343,46.6237692 C9.23076217,46.6237692 9.78122795,46.3511282 10.1145142,45.8483846 C10.6359986,45.0582821 10.4188191,43.981359 9.62201129,43.4646154 C8.82466008,42.9478718 7.73785697,43.1630769 7.21637262,43.9524615 C6.68003529,44.7427436 6.89721477,45.8196667 7.70887556,46.3364103 Z" id="Fill-9"></path>
                <path d="M13.1428911,38.9704359 C12.259139,39.3581282 11.8678899,40.3774359 12.259139,41.2391538 C12.5491343,41.8849487 13.1867255,42.258641 13.8531169,42.258641 C14.0853305,42.258641 14.3314914,42.2152051 14.5627993,42.1148718 C15.4472759,41.7271795 15.8385251,40.7076923 15.4472759,39.8461538 C15.0411738,38.9704359 14.0123336,38.5825641 13.1428911,38.9704359 Z" id="Fill-10"></path>
                <path d="M29.2134486,39.5306154 C29.2134486,40.4820769 28.4343919,41.2531538 27.4743825,41.2531538 C26.514192,41.2531538 25.7351353,40.4820769 25.7351353,39.5306154 C25.7351353,38.5784359 26.514192,37.8071795 27.4743825,37.8071795 C28.4343919,37.8071795 29.2134486,38.5784359 29.2134486,39.5306154 Z" id="Fill-11"></path>
                <path d="M6.72386968,53.0705897 C7.1873912,53.0705897 7.63660315,52.8841026 7.955761,52.5678462 C8.27419431,52.2524872 8.46239238,51.8071795 8.46239238,51.3480513 C8.46239238,50.8880256 8.27419431,50.4428974 7.955761,50.127359 C7.63660315,49.8111026 7.1873912,49.6246154 6.72386968,49.6246154 C6.25980475,49.6246154 5.81041167,49.8111026 5.49197836,50.127359 C5.17300165,50.4428974 4.98480358,50.8880256 4.98480358,51.3480513 C4.98480358,51.8071795 5.17300165,52.2524872 5.49197836,52.5678462 C5.81041167,52.8841026 6.25980475,53.0705897 6.72386968,53.0705897 Z" id="Fill-12"></path>
                <path d="M54.3111738,24.5251282 L47.5873042,17.8623846 C46.9066032,17.1878718 45.8049471,17.1878718 45.1242461,17.8623846 L38.4003764,24.5251282 C37.7189508,25.200359 37.7189508,26.2912821 38.4003764,26.9665128 C39.0818019,27.6410256 40.1827335,27.6410256 40.864159,26.9665128 L44.6168901,23.247 L44.6168901,27.6984615 C44.6168901,33.2695641 40.0086638,37.7924615 34.3433404,37.7924615 C33.3865914,37.7924615 32.6040932,38.5678462 32.6040932,39.5158974 C32.6040932,40.4637692 33.3865914,41.2391538 34.3433404,41.2391538 C41.9217996,41.2391538 48.0946601,35.1653077 48.0946601,27.6984615 L48.0946601,23.233 L51.8473912,26.9517949 C52.1806775,27.2820513 52.6300706,27.454359 53.0792825,27.454359 C53.5286756,27.454359 53.9637591,27.2820513 54.3111738,26.9517949 C54.9925994,26.2912821 54.9925994,25.200359 54.3111738,24.5251282 Z" id="Fill-14"></path>
            </g>
        </g>
    </g>
</svg>

<?xml version="1.0" encoding="utf-8"?>
<!-- Generator: Adobe Illustrator 16.0.0, SVG Export Plug-In . SVG Version: 6.00 Build 0)  -->
<!DOCTYPE svg PUBLIC "-//W3C//DTD SVG 1.1//EN" "http://www.w3.org/Graphics/SVG/1.1/DTD/svg11.dtd">
<svg version="1.1" id="Layer_1" xmlns="http://www.w3.org/2000/svg" xmlns:xlink="http://www.w3.org/1999/xlink" x="0px" y="0px"
	 width="55px" height="70px" viewBox="0 0 55 70" enable-background="new 0 0 55 70" xml:space="preserve">
<title>7A7F5E48-047F-4603-8AC2-068C58DDB5E5</title>
<desc>Created with sketchtool.</desc>
<g id="_xD83D__xDCBB_-Desktop-Web">
	<g id="_x31_.1.Home-Page" transform="translate(-1095.000000, -1679.000000)">
		<g id="Group-9" transform="translate(1095.000000, 1679.000000)">
			<path id="Fill-1" fill="#1046F1" d="M46.37,13.469c3.71,0,6.724-3.001,6.724-6.691c0-3.691-3.014-6.692-6.724-6.692
				s-6.724,3.016-6.724,6.692C39.646,10.454,42.66,13.469,46.37,13.469z M46.37,3.547c1.782,0,3.247,1.45,3.247,3.245
				s-1.449,3.246-3.247,3.246c-1.797,0-3.246-1.465-3.246-3.259C43.124,4.983,44.573,3.547,46.37,3.547z"/>
			<path id="Fill-3" fill="#1046F1" d="M6.724,56.617C3.014,56.617,0,59.619,0,63.309C0,66.999,3.014,70,6.724,70
				c3.71,0,6.724-3.001,6.724-6.691C13.447,59.619,10.419,56.617,6.724,56.617z M6.724,66.554c-1.782,0-3.246-1.45-3.246-3.245
				c0-1.78,1.449-3.245,3.246-3.245s3.246,1.45,3.246,3.245C9.955,65.09,8.506,66.554,6.724,66.554z"/>
			<path id="Fill-5" fill="#1046F1" d="M23.344,29.737c0.333,0.33,0.783,0.503,1.232,0.503s0.884-0.173,1.232-0.503
				c0.681-0.675,0.681-1.766,0-2.44l-3.623-3.59l3.623-3.59c0.681-0.675,0.681-1.766,0-2.441c-0.681-0.675-1.782-0.675-2.464,0
				l-3.623,3.59l-3.623-3.59c-0.681-0.675-1.783-0.675-2.463,0c-0.681,0.675-0.681,1.766,0,2.441l3.623,3.59l-3.623,3.59
				c-0.681,0.674-0.681,1.766,0,2.44c0.333,0.33,0.783,0.503,1.231,0.503c0.449,0,0.884-0.173,1.232-0.503l3.623-3.59L23.344,29.737
				z"/>
			<path id="Fill-6" fill="#1046F1" d="M52.457,45.316c-0.682-0.675-1.783-0.675-2.464,0l-3.623,3.59l-3.622-3.59
				c-0.682-0.675-1.783-0.675-2.465,0c-0.68,0.676-0.68,1.767,0,2.441l3.623,3.59l-3.623,3.59c-0.68,0.675-0.68,1.766,0,2.441
				c0.334,0.33,0.783,0.502,1.232,0.502s0.884-0.172,1.232-0.502l3.622-3.59l3.623,3.59c0.333,0.33,0.782,0.502,1.231,0.502
				s0.884-0.172,1.232-0.502c0.68-0.676,0.68-1.767,0-2.441l-3.623-3.59l3.623-3.59C53.137,47.069,53.137,45.992,52.457,45.316z"/>
			<path id="Fill-7" fill="#1046F1" d="M31.851,54.205c-0.682-0.674-1.782-0.674-2.464,0l-3.623,3.59l-3.623-3.59
				c-0.681-0.674-1.783-0.674-2.463,0c-0.682,0.676-0.682,1.766,0,2.441l3.623,3.59l-3.623,3.59c-0.682,0.674-0.682,1.766,0,2.44
				c0.333,0.33,0.782,0.503,1.231,0.503c0.45,0,0.884-0.173,1.231-0.503l3.623-3.59l3.623,3.59c0.334,0.33,0.783,0.503,1.232,0.503
				s0.884-0.173,1.231-0.503c0.682-0.675,0.682-1.767,0-2.44l-3.622-3.59l3.622-3.59C32.518,55.971,32.518,54.881,31.851,54.205z"/>
			<path id="Fill-8" fill="#1046F1" d="M20.591,41.253c0.957,0,1.739-0.775,1.739-1.722c0-0.949-0.783-1.725-1.739-1.725
				s-1.739,0.775-1.739,1.725C18.852,40.478,19.621,41.253,20.591,41.253z"/>
			<path id="Fill-9" fill="#1046F1" d="M7.709,46.336c0.29,0.188,0.623,0.288,0.957,0.288c0.565,0,1.116-0.272,1.449-0.775
				c0.521-0.79,0.304-1.867-0.493-2.384c-0.797-0.518-1.884-0.302-2.406,0.488C6.68,44.742,6.897,45.82,7.709,46.336z"/>
			<path id="Fill-10" fill="#1046F1" d="M13.143,38.971c-0.884,0.387-1.275,1.406-0.884,2.269c0.29,0.646,0.927,1.02,1.594,1.02
				c0.232,0,0.479-0.044,0.71-0.144c0.884-0.389,1.275-1.408,0.884-2.27C15.041,38.971,14.012,38.582,13.143,38.971z"/>
			<path id="Fill-11" fill="#1046F1" d="M29.213,39.531c0,0.951-0.778,1.722-1.738,1.722c-0.96,0-1.739-0.771-1.739-1.722
				c0-0.953,0.779-1.725,1.739-1.725C28.435,37.807,29.213,38.578,29.213,39.531z"/>
			<path id="Fill-12" fill="#1046F1" d="M6.724,53.07c0.464,0,0.913-0.186,1.232-0.502s0.507-0.762,0.507-1.221
				s-0.188-0.904-0.507-1.221s-0.768-0.502-1.232-0.502s-0.913,0.186-1.231,0.502c-0.319,0.316-0.507,0.762-0.507,1.221
				s0.188,0.904,0.507,1.221C5.811,52.885,6.26,53.07,6.724,53.07z"/>
			<path id="Fill-14" fill="#1046F1" d="M54.311,24.525l-6.723-6.663c-0.682-0.674-1.783-0.674-2.464,0L38.4,24.525
				c-0.682,0.675-0.682,1.767,0,2.441s1.782,0.675,2.464,0l3.753-3.719v4.451c0,5.571-4.608,10.095-10.273,10.095
				c-0.957,0-1.74,0.775-1.74,1.723c0,0.948,0.783,1.724,1.74,1.724c7.578,0,13.751-6.074,13.751-13.541v-4.465l3.753,3.719
				c0.333,0.331,0.782,0.502,1.231,0.502c0.45,0,0.885-0.172,1.231-0.502C54.992,26.292,54.992,25.2,54.311,24.525z"/>
		</g>
	</g>
</g>
</svg>
